cached_logos/sparta.svg

<svg xmlns="http://www.w3.org/2000/svg" role="img" viewBox="-6.52 -6.52 325.78 106.03"><title>Sparta logo</title><path d="M0 65.3l4.8-8q3.6 3 8.1 4.9a23.348 23.348 0 0 0 5.37 1.51 32.118 32.118 0 0 0 5.13.39 27.981 27.981 0 0 0 4.547-.346q2.423-.4 4.384-1.26A13.701 13.701 0 0 0 34.8 61.1q4.048-2.891 4.195-7.734A12.116 12.116 0 0 0 39 53a11.94 11.94 0 0 0-.337-2.893 9.816 9.816 0 0 0-.863-2.257 8.097 8.097 0 0 0-1.2-1.656q-1.27-1.381-3.416-2.723a25.81 25.81 0 0 0-.034-.021q-3.116-1.942-8.885-4.17A118.584 118.584 0 0 0 23 38.8q-7.2-2.8-11.5-5.65a21.931 21.931 0 0 1-3.089-2.447q-1.717-1.65-2.773-3.515a13.303 13.303 0 0 1-.288-.538Q3.5 23 3.5 18t2.75-9.05Q9 4.9 14.35 2.45a25.558 25.558 0 0 1 5.9-1.835Q23.493 0 27.3 0q6.2 0 11.15 1.25T48.1 4.8l-3.5 8.1a31.496 31.496 0 0 0-4.126-2.019A41.686 41.686 0 0 0 36.65 9.55Q32.1 8.2 27.1 8.2a27.187 27.187 0 0 0-4.03.28q-2.132.32-3.87 1.007a12.616 12.616 0 0 0-2.5 1.313 9.902 9.902 0 0 0-2.163 1.965A7.359 7.359 0 0 0 12.9 17.5a10.464 10.464 0 0 0 .292 2.522A8.562 8.562 0 0 0 14 22.1q1.056 1.919 4.091 3.747a23.503 23.503 0 0 0 .259.153 33.003 33.003 0 0 0 2.216 1.172q2.269 1.103 5.48 2.351a130.016 130.016 0 0 0 2.054.777 81.228 81.228 0 0 1 4.978 2.029Q37.464 34.3 40.45 36.4a26.044 26.044 0 0 1 3.04 2.478q2.223 2.128 3.41 4.472a17.579 17.579 0 0 1 1.741 5.863A22.155 22.155 0 0 1 48.8 51.9a21.71 21.71 0 0 1-.667 5.501A17.105 17.105 0 0 1 45.55 63q-3.25 4.6-9 7a30.521 30.521 0 0 1-7.41 2.004 40.027 40.027 0 0 1-5.74.396q-7.3 0-13.3-1.95a38.206 38.206 0 0 1-5.367-2.182A28.433 28.433 0 0 1 0 65.3zm71.7 27.9h-9V32.5a11.015 11.015 0 0 0-.127-1.736q-.331-2.066-1.523-3.114a5.718 5.718 0 0 0-2.79-1.322 7.991 7.991 0 0 0-1.46-.128l1.9-7q5.862 0 8.922 2.964A10.15 10.15 0 0 1 70.2 26.5q.955-1.433 3.052-3.322A38.58 38.58 0 0 1 73.45 23a18.902 18.902 0 0 1 2.701-1.984A25.569 25.569 0 0 1 79.05 19.5a16.955 16.955 0 0 1 4.559-1.289A21.886 21.886 0 0 1 86.7 18q6 0 11.25 3.15a22.329 22.329 0 0 1 7.178 6.967 27.464 27.464 0 0 1 1.272 2.133q3.2 5.95 3.2 14.45 0 8.3-3.2 14.55a27.846 27.846 0 0 1-3.934 5.832 23.029 23.029 0 0 1-4.416 3.868Q92.9 72.4 86.9 72.4q-4.6 0-8.6-1.85a30.352 30.352 0 0 1-3.416-1.839Q73.091 67.585 71.7 66.3v26.9zm156-39.9V28.9h-9v-7.8h9.2l1.9-16.4h6.9v16.4h14.4v7.8h-14.4V54a21.559 21.559 0 0 0 .168 2.796q.473 3.606 2.282 5.304 2.45 2.3 5.85 2.3 2.5 0 4.75-.8t4.15-1.9l2.5 7.2a18.546 18.546 0 0 1-1.618.856q-.802.379-1.748.752a43.365 43.365 0 0 1-2.034.742q-3.4 1.15-7.1 1.15-7.5 0-11.85-4.95a16.116 16.116 0 0 1-3.228-5.902q-.763-2.431-1.007-5.367a34.777 34.777 0 0 1-.115-2.881zm-70-29.9v-4.2h8.2v39.4a12.15 12.15 0 0 0 .102 1.636q.332 2.434 1.748 3.314 1.85 1.15 4.05 1.15l-1.9 7a17.722 17.722 0 0 1-4.265-.472q-5.637-1.4-7.232-6.948a13.59 13.59 0 0 1-.103-.38 21.307 21.307 0 0 1-3.11 3.426 28.498 28.498 0 0 1-3.14 2.424Q148.1 72.4 142 72.4q-6.5 0-11.8-3.3a22.947 22.947 0 0 1-7.413-7.526 27.923 27.923 0 0 1-1.037-1.824 27.228 27.228 0 0 1-2.63-7.942 36.644 36.644 0 0 1-.52-6.308 33.142 33.142 0 0 1 .997-8.269 27.968 27.968 0 0 1 2.153-5.731q3.15-6.2 8.7-9.85a22.297 22.297 0 0 1 11.195-3.606A27.388 27.388 0 0 1 143.2 18a22.584 22.584 0 0 1 4.794.491 18.703 18.703 0 0 1 3.356 1.059 26.002 26.002 0 0 1 4.287 2.294A22.103 22.103 0 0 1 157.7 23.4zm141.3 0v-4.2h8.2v39.4a12.15 12.15 0 0 0 .102 1.636q.332 2.434 1.748 3.314 1.85 1.15 4.05 1.15l-1.9 7a17.722 17.722 0 0 1-4.265-.472q-5.637-1.4-7.232-6.948a13.59 13.59 0 0 1-.103-.38 21.307 21.307 0 0 1-3.11 3.426 28.498 28.498 0 0 1-3.14 2.424q-3.95 2.65-10.05 2.65-6.5 0-11.8-3.3a22.947 22.947 0 0 1-7.413-7.526 27.923 27.923 0 0 1-1.037-1.824 27.228 27.228 0 0 1-2.63-7.942 36.644 36.644 0 0 1-.52-6.308 33.142 33.142 0 0 1 .997-8.269 27.968 27.968 0 0 1 2.153-5.731q3.15-6.2 8.7-9.85a22.297 22.297 0 0 1 11.195-3.606A27.388 27.388 0 0 1 284.5 18a22.584 22.584 0 0 1 4.794.491 18.703 18.703 0 0 1 3.356 1.059 26.002 26.002 0 0 1 4.287 2.294A22.103 22.103 0 0 1 299 23.4zM192.8 71.2h-9v-52h8.7v11.3q1.3-3.3 3.5-6.15 2.2-2.85 5.5-4.6a14.817 14.817 0 0 1 4.68-1.524A19.459 19.459 0 0 1 209.2 18q1.5 0 3 .15a18.972 18.972 0 0 1 1.055.134q.5.078.927.179a8.817 8.817 0 0 1 .518.137l-2.7 9.3a9.763 9.763 0 0 0-2.145-.612q-1.096-.188-2.355-.188a12.958 12.958 0 0 0-6.63 1.846 15.609 15.609 0 0 0-.42.254q-3.328 2.086-5.472 6.442a22.927 22.927 0 0 0-.028.058q-1.763 3.607-2.08 8.828a39.09 39.09 0 0 0-.07 2.372v24.3zm-35.9-13.3V30q-2.7-1.9-5.95-3.05t-6.85-1.15a15.924 15.924 0 0 0-4.971.754 14.024 14.024 0 0 0-3.479 1.696 16.301 16.301 0 0 0-5.019 5.424 19.962 19.962 0 0 0-.731 1.376 20.663 20.663 0 0 0-1.753 5.677 27.678 27.678 0 0 0-.347 4.473q0 5.6 2.1 9.95a17.602 17.602 0 0 0 3.106 4.546 15.697 15.697 0 0 0 2.694 2.254q3.7 2.45 8.3 2.45 3.8 0 7.2-1.85 3.4-1.85 5.7-4.65zm141.3 0V30q-2.7-1.9-5.95-3.05t-6.85-1.15a15.924 15.924 0 0 0-4.971.754 14.024 14.024 0 0 0-3.479 1.696 16.301 16.301 0 0 0-5.019 5.424 19.962 19.962 0 0 0-.731 1.376 20.663 20.663 0 0 0-1.753 5.677 27.678 27.678 0 0 0-.347 4.473q0 5.6 2.1 9.95a17.602 17.602 0 0 0 3.106 4.546A15.697 15.697 0 0 0 277 61.95q3.7 2.45 8.3 2.45 3.8 0 7.2-1.85 3.4-1.85 5.7-4.65zM71.7 32.6v25.6q2.6 2.7 6 4.45t7.4 1.75q6.694 0 10.917-5.184a17.38 17.38 0 0 0 .133-.166 18.792 18.792 0 0 0 3.494-7.305q.661-2.69.744-5.837A34.555 34.555 0 0 0 100.4 45q0-6-2.15-10.3-2.15-4.3-5.7-6.6-3.55-2.3-7.85-2.3a14.741 14.741 0 0 0-5.627 1.063 14.054 14.054 0 0 0-2.123 1.087Q73.5 30.1 71.7 32.6z" vector-effect="non-scaling-stroke" fill="#000" fill-rule="evenodd" stroke="#000" stroke-linecap="round" stroke-width=".25mm"/></svg>

<svg xmlns="http://www.w3.org/2000/svg" role="img" viewBox="-6.52 -6.52 325.78 106.03"><title>Sparta logo</title><g id="svgGroup" fill="#000" fill-rule="evenodd" stroke="#000" stroke-linecap="round" stroke-width=".25mm"><path d="M 0 65.3 L 4.8 57.3 Q 8.4 60.3 12.9 62.2 A 23.348 23.348 0 0 0 18.27 63.71 A 32.118 32.118 0 0 0 23.4 64.1 A 27.981 27.981 0 0 0 27.947 63.754 Q 30.37 63.354 32.331 62.494 A 13.701 13.701 0 0 0 34.8 61.1 Q 38.848 58.209 38.995 53.366 A 12.116 12.116 0 0 0 39 53 A 11.94 11.94 0 0 0 38.663 50.107 A 9.816 9.816 0 0 0 37.8 47.85 A 8.097 8.097 0 0 0 36.6 46.194 Q 35.33 44.813 33.184 43.471 A 25.81 25.81 0 0 0 33.15 43.45 Q 30.034 41.508 24.265 39.28 A 118.584 118.584 0 0 0 23 38.8 Q 15.8 36 11.5 33.15 A 21.931 21.931 0 0 1 8.411 30.703 Q 6.694 29.053 5.638 27.188 A 13.303 13.303 0 0 1 5.35 26.65 Q 3.5 23 3.5 18 Q 3.5 13 6.25 8.95 Q 9 4.9 14.35 2.45 A 25.558 25.558 0 0 1 20.25 0.615 Q 23.493 0 27.3 0 Q 33.5 0 38.45 1.25 Q 43.4 2.5 48.1 4.8 L 44.6 12.9 A 31.496 31.496 0 0 0 40.474 10.881 A 41.686 41.686 0 0 0 36.65 9.55 Q 32.1 8.2 27.1 8.2 A 27.187 27.187 0 0 0 23.07 8.48 Q 20.938 8.8 19.2 9.487 A 12.616 12.616 0 0 0 16.7 10.8 A 9.902 9.902 0 0 0 14.537 12.765 A 7.359 7.359 0 0 0 12.9 17.5 A 10.464 10.464 0 0 0 13.192 20.022 A 8.562 8.562 0 0 0 14 22.1 Q 15.056 24.019 18.091 25.847 A 23.503 23.503 0 0 0 18.35 26 A 33.003 33.003 0 0 0 20.566 27.172 Q 22.835 28.275 26.046 29.523 A 130.016 130.016 0 0 0 28.1 30.3 A 81.228 81.228 0 0 1 33.078 32.329 Q 37.464 34.3 40.45 36.4 A 26.044 26.044 0 0 1 43.49 38.878 Q 45.713 41.006 46.9 43.35 A 17.579 17.579 0 0 1 48.641 49.213 A 22.155 22.155 0 0 1 48.8 51.9 A 21.71 21.71 0 0 1 48.133 57.401 A 17.105 17.105 0 0 1 45.55 63 Q 42.3 67.6 36.55 70 A 30.521 30.521 0 0 1 29.14 72.004 A 40.027 40.027 0 0 1 23.4 72.4 Q 16.1 72.4 10.1 70.45 A 38.206 38.206 0 0 1 4.733 68.268 A 28.433 28.433 0 0 1 0 65.3 Z M 71.7 93.2 L 62.7 93.2 L 62.7 32.5 A 11.015 11.015 0 0 0 62.573 30.764 Q 62.242 28.698 61.05 27.65 A 5.718 5.718 0 0 0 58.26 26.328 A 7.991 7.991 0 0 0 56.8 26.2 L 58.7 19.2 Q 64.562 19.2 67.622 22.164 A 10.15 10.15 0 0 1 70.2 26.5 Q 71.155 25.067 73.252 23.178 A 38.58 38.58 0 0 1 73.45 23 A 18.902 18.902 0 0 1 76.151 21.016 A 25.569 25.569 0 0 1 79.05 19.5 A 16.955 16.955 0 0 1 83.609 18.211 A 21.886 21.886 0 0 1 86.7 18 Q 92.7 18 97.95 21.15 A 22.329 22.329 0 0 1 105.128 28.117 A 27.464 27.464 0 0 1 106.4 30.25 Q 109.6 36.2 109.6 44.7 Q 109.6 53 106.4 59.25 A 27.846 27.846 0 0 1 102.466 65.082 A 23.029 23.029 0 0 1 98.05 68.95 Q 92.9 72.4 86.9 72.4 Q 82.3 72.4 78.3 70.55 A 30.352 30.352 0 0 1 74.884 68.711 Q 73.091 67.585 71.7 66.3 L 71.7 93.2 Z M 227.7 53.3 L 227.7 28.9 L 218.7 28.9 L 218.7 21.1 L 227.9 21.1 L 229.8 4.7 L 236.7 4.7 L 236.7 21.1 L 251.1 21.1 L 251.1 28.9 L 236.7 28.9 L 236.7 54 A 21.559 21.559 0 0 0 236.868 56.796 Q 237.341 60.402 239.15 62.1 Q 241.6 64.4 245 64.4 Q 247.5 64.4 249.75 63.6 Q 252 62.8 253.9 61.7 L 256.4 68.9 A 18.546 18.546 0 0 1 254.782 69.756 Q 253.98 70.135 253.034 70.508 A 43.365 43.365 0 0 1 251 71.25 Q 247.6 72.4 243.9 72.4 Q 236.4 72.4 232.05 67.45 A 16.116 16.116 0 0 1 228.822 61.548 Q 228.059 59.117 227.815 56.181 A 34.777 34.777 0 0 1 227.7 53.3 Z M 157.7 23.4 L 157.7 19.2 L 165.9 19.2 L 165.9 58.6 A 12.15 12.15 0 0 0 166.002 60.236 Q 166.334 62.67 167.75 63.55 Q 169.6 64.7 171.8 64.7 L 169.9 71.7 A 17.722 17.722 0 0 1 165.635 71.228 Q 159.998 69.828 158.403 64.28 A 13.59 13.59 0 0 1 158.3 63.9 A 21.307 21.307 0 0 1 155.19 67.326 A 28.498 28.498 0 0 1 152.05 69.75 Q 148.1 72.4 142 72.4 Q 135.5 72.4 130.2 69.1 A 22.947 22.947 0 0 1 122.787 61.574 A 27.923 27.923 0 0 1 121.75 59.75 A 27.228 27.228 0 0 1 119.12 51.808 A 36.644 36.644 0 0 1 118.6 45.5 A 33.142 33.142 0 0 1 119.597 37.231 A 27.968 27.968 0 0 1 121.75 31.5 Q 124.9 25.3 130.45 21.65 A 22.297 22.297 0 0 1 141.645 18.044 A 27.388 27.388 0 0 1 143.2 18 A 22.584 22.584 0 0 1 147.994 18.491 A 18.703 18.703 0 0 1 151.35 19.55 A 26.002 26.002 0 0 1 155.637 21.844 A 22.103 22.103 0 0 1 157.7 23.4 Z M 299 23.4 L 299 19.2 L 307.2 19.2 L 307.2 58.6 A 12.15 12.15 0 0 0 307.302 60.236 Q 307.634 62.67 309.05 63.55 Q 310.9 64.7 313.1 64.7 L 311.2 71.7 A 17.722 17.722 0 0 1 306.935 71.228 Q 301.298 69.828 299.703 64.28 A 13.59 13.59 0 0 1 299.6 63.9 A 21.307 21.307 0 0 1 296.49 67.326 A 28.498 28.498 0 0 1 293.35 69.75 Q 289.4 72.4 283.3 72.4 Q 276.8 72.4 271.5 69.1 A 22.947 22.947 0 0 1 264.087 61.574 A 27.923 27.923 0 0 1 263.05 59.75 A 27.228 27.228 0 0 1 260.42 51.808 A 36.644 36.644 0 0 1 259.9 45.5 A 33.142 33.142 0 0 1 260.897 37.231 A 27.968 27.968 0 0 1 263.05 31.5 Q 266.2 25.3 271.75 21.65 A 22.297 22.297 0 0 1 282.945 18.044 A 27.388 27.388 0 0 1 284.5 18 A 22.584 22.584 0 0 1 289.294 18.491 A 18.703 18.703 0 0 1 292.65 19.55 A 26.002 26.002 0 0 1 296.937 21.844 A 22.103 22.103 0 0 1 299 23.4 Z M 192.8 71.2 L 183.8 71.2 L 183.8 19.2 L 192.5 19.2 L 192.5 30.5 Q 193.8 27.2 196 24.35 Q 198.2 21.5 201.5 19.75 A 14.817 14.817 0 0 1 206.18 18.226 A 19.459 19.459 0 0 1 209.2 18 Q 210.7 18 212.2 18.15 A 18.972 18.972 0 0 1 213.255 18.284 Q 213.755 18.362 214.182 18.463 A 8.817 8.817 0 0 1 214.7 18.6 L 212 27.9 A 9.763 9.763 0 0 0 209.855 27.288 Q 208.759 27.1 207.5 27.1 A 12.958 12.958 0 0 0 200.87 28.946 A 15.609 15.609 0 0 0 200.45 29.2 Q 197.122 31.286 194.978 35.642 A 22.927 22.927 0 0 0 194.95 35.7 Q 193.187 39.307 192.87 44.528 A 39.09 39.09 0 0 0 192.8 46.9 L 192.8 71.2 Z M 156.9 57.9 L 156.9 30 Q 154.2 28.1 150.95 26.95 Q 147.7 25.8 144.1 25.8 A 15.924 15.924 0 0 0 139.129 26.554 A 14.024 14.024 0 0 0 135.65 28.25 A 16.301 16.301 0 0 0 130.631 33.674 A 19.962 19.962 0 0 0 129.9 35.05 A 20.663 20.663 0 0 0 128.147 40.727 A 27.678 27.678 0 0 0 127.8 45.2 Q 127.8 50.8 129.9 55.15 A 17.602 17.602 0 0 0 133.006 59.696 A 15.697 15.697 0 0 0 135.7 61.95 Q 139.4 64.4 144 64.4 Q 147.8 64.4 151.2 62.55 Q 154.6 60.7 156.9 57.9 Z M 298.2 57.9 L 298.2 30 Q 295.5 28.1 292.25 26.95 Q 289 25.8 285.4 25.8 A 15.924 15.924 0 0 0 280.429 26.554 A 14.024 14.024 0 0 0 276.95 28.25 A 16.301 16.301 0 0 0 271.931 33.674 A 19.962 19.962 0 0 0 271.2 35.05 A 20.663 20.663 0 0 0 269.447 40.727 A 27.678 27.678 0 0 0 269.1 45.2 Q 269.1 50.8 271.2 55.15 A 17.602 17.602 0 0 0 274.306 59.696 A 15.697 15.697 0 0 0 277 61.95 Q 280.7 64.4 285.3 64.4 Q 289.1 64.4 292.5 62.55 Q 295.9 60.7 298.2 57.9 Z M 71.7 32.6 L 71.7 58.2 Q 74.3 60.9 77.7 62.65 Q 81.1 64.4 85.1 64.4 Q 91.794 64.4 96.017 59.216 A 17.38 17.38 0 0 0 96.15 59.05 A 18.792 18.792 0 0 0 99.644 51.745 Q 100.305 49.055 100.388 45.908 A 34.555 34.555 0 0 0 100.4 45 Q 100.4 39 98.25 34.7 Q 96.1 30.4 92.55 28.1 Q 89 25.8 84.7 25.8 A 14.741 14.741 0 0 0 79.073 26.863 A 14.054 14.054 0 0 0 76.95 27.95 Q 73.5 30.1 71.7 32.6 Z" vector-effect="non-scaling-stroke"/></g></svg>
